images/lucy/lucydunno.svg

<svg xmlns="http://www.w3.org/2000/svg" width="2000" height="1915" fill="none"><path fill="#ffaff3" stroke="#151515" stroke-width="80" d="M905.504 95.13c41.483-73.507 147.506-73.507 188.996 0l217.42 385.27c26.9 47.672 73.23 81.278 126.9 92.095l434.05 87.471c82.87 16.699 115.52 117.344 58.4 179.399L1631.6 1164.95a188.151 188.151 0 0 0-48.49 149.06l50.83 439.33c9.69 83.71-75.98 146.04-152.89 110.88l-402.64-184.05a188.552 188.552 0 0 0-156.823 0l-402.634 184.05c-76.916 35.15-162.584-27.17-152.898-110.88l50.837-439.33c6.292-54.37-11.413-108.78-48.488-149.06L68.725 839.366c-57.118-62.055-24.463-162.7 58.403-179.399l434.052-87.471c53.674-10.817 100-44.423 126.902-92.095L905.504 95.13Z"/><circle cx="678.571" cy="1007.14" r="78.571" fill="#151515"/><circle cx="1321.43" cy="1007.14" r="78.571" fill="#151515"/><path stroke="#151515" stroke-linecap="round" stroke-width="80" d="M936.158 1196.89h126.052"/></svg>

<svg width="2000" height="1915" viewBox="0 0 2000 1915" fill="none" xmlns="http://www.w3.org/2000/svg">
<path d="M905.504 95.13C946.987 21.6233 1053.01 21.6234 1094.5 95.1298L1311.92 480.401C1338.82 528.073 1385.15 561.679 1438.82 572.496L1872.87 659.967C1955.74 676.666 1988.39 777.311 1931.27 839.366L1631.6 1164.95C1594.52 1205.23 1576.82 1259.64 1583.11 1314.01L1633.94 1753.34C1643.63 1837.05 1557.96 1899.38 1481.05 1864.22L1078.41 1680.17C1028.62 1657.4 971.38 1657.4 921.587 1680.17L518.953 1864.22C442.037 1899.37 356.369 1837.05 366.055 1753.34L416.892 1314.01C423.184 1259.64 405.479 1205.23 368.404 1164.95L68.7254 839.366C11.607 777.311 44.2619 676.666 127.128 659.967L561.18 572.496C614.854 561.679 661.18 528.073 688.082 480.401L905.504 95.13Z" fill="#ffaff3" stroke="#151515" stroke-width="80"/>
<ellipse cx="678.571" cy="1007.14" rx="78.5714" ry="78.5714" fill="#151515"/>
<ellipse cx="1321.43" cy="1007.14" rx="78.5714" ry="78.5714" fill="#151515"/>
<path d="M936.158 1196.89H1062.21" stroke="#151515" stroke-width="80" stroke-linecap="round"/>
</svg>
